logos/stickermule.svg

<?xml version="1.0" encoding="UTF-8" standalone="no"?>
<svg width="256px" height="149px" viewBox="0 0 256 149" version="1.1" xmlns="http://www.w3.org/2000/svg" xmlns:xlink="http://www.w3.org/1999/xlink" preserveAspectRatio="xMidYMid">
  <g>
     <path d="M12.0435706,148.42287 C7.73568362,148.42287 3.84723164,147.949198 0.380384181,144.48235 L4.84664407,140.01826 C7.10508475,142.276701 10.0476384,142.592 12.1477062,142.592 C14.5117288,142.592 16.9813333,141.803751 16.9813333,139.755751 C16.9813333,138.389695 16.2458757,137.44452 14.0922938,137.233356 L9.78368362,136.813198 C4.84664407,136.340249 1.7999548,134.18739 1.7999548,129.144045 C1.7999548,123.470102 6.79123164,120.423412 12.3581469,120.423412 C16.6132429,120.423412 20.1863955,121.15887 22.8122034,123.627028 L18.6098983,127.882847 C17.0341243,126.465446 14.6173107,126.043842 12.2532881,126.043842 C9.52189831,126.043842 8.36700565,127.30504 8.36700565,128.66965 C8.36700565,129.669062 8.78571751,130.824678 11.2025311,131.035119 L15.5104181,131.456 C20.9211299,131.979571 23.6539661,134.870056 23.6539661,139.491797 C23.6539661,145.533831 18.5057627,148.42287 12.0435706,148.42287 Z M35.5745989,148.107571 C30.0069605,148.107571 27.6429379,144.167774 27.6429379,140.280045 L27.6429379,126.727232 L24.7538983,126.727232 L24.7538983,121.52696 L27.6429379,121.52696 L27.6429379,113.436927 L34.471774,113.436927 L34.471774,121.52696 L39.304678,121.52696 L39.304678,126.727232 L34.471774,126.727232 L34.471774,139.861333 C34.471774,141.435661 35.2072316,142.329492 36.8357966,142.329492 L39.304678,142.329492 L39.304678,148.107571 L35.5745989,148.107571 Z M42.4446554,148.107571 L49.2742147,148.107571 L49.2742147,120.738712 L42.4446554,120.738712 L42.4446554,148.107571 Z M42.3390734,116.062734 L49.3270056,116.062734 L49.3270056,110.495819 L42.3390734,110.495819 L42.3390734,116.062734 Z M64.7065311,148.42287 C59.2430282,148.42287 52.4669831,145.48104 52.4669831,134.396384 C52.4669831,123.313175 59.2430282,120.423412 64.7065311,120.423412 C68.4879548,120.423412 71.3249266,121.579028 73.7417401,124.101424 L69.1192768,128.723887 C67.7011525,127.200904 66.4934689,126.569582 64.7065311,126.569582 C63.0772429,126.569582 61.8174915,127.146667 60.8188023,128.355073 C59.7687684,129.669062 59.2958192,131.508068 59.2958192,134.396384 C59.2958192,137.28687 59.7687684,139.17722 60.8188023,140.491209 C61.8174915,141.699616 63.0772429,142.276701 64.7065311,142.276701 C66.4934689,142.276701 67.7011525,141.646825 69.1192768,140.123119 L73.7417401,144.693514 C71.3249266,147.214463 68.4879548,148.42287 64.7065311,148.42287 Z M92.5823277,148.107571 L85.8583503,136.708339 L82.9700339,139.965469 L82.9700339,148.107571 L76.1404746,148.107571 L76.1404746,110.705537 L82.9700339,110.705537 L82.9700339,131.927503 L92.0580339,120.738712 L100.305718,120.738712 L90.5336045,131.770576 L101.041175,148.107571 L92.5823277,148.107571 Z M106.742599,136.551412 C106.742599,140.071051 108.895458,142.644068 112.731842,142.644068 C115.725017,142.644068 117.195932,141.803751 118.930079,140.071051 L123.079593,144.116429 C120.296859,146.899164 117.617537,148.42287 112.679051,148.42287 C106.216859,148.42287 100.019345,145.48104 100.019345,134.396384 C100.019345,125.466757 104.851525,120.423412 111.943593,120.423412 C119.559955,120.423412 123.867842,125.991774 123.867842,133.503277 L123.867842,136.551412 L106.742599,136.551412 Z M116.513266,128.933605 C115.778531,127.30504 114.256271,126.09591 111.943593,126.09591 C109.630915,126.09591 108.108655,127.30504 107.372475,128.933605 C106.95304,129.932294 106.79539,130.667751 106.742599,131.874712 L117.144588,131.874712 C117.091797,130.667751 116.934147,129.932294 116.513266,128.933605 Z M141.978757,128.198147 C140.928723,127.146667 140.035616,126.569582 138.35426,126.569582 C136.252023,126.569582 133.939345,128.146802 133.939345,131.61365 L133.939345,148.107571 L127.111232,148.107571 L127.111232,120.738712 L133.782418,120.738712 L133.782418,123.365966 C135.096407,121.788746 137.724384,120.423412 140.664768,120.423412 C143.345537,120.423412 145.235164,121.106079 147.126237,122.998599 L141.978757,128.198147 Z" fill="#4C2418"></path>
     <path d="M177.818757,120.423412 C174.403254,120.423412 171.935096,121.474169 169.623864,123.890983 C167.889718,121.52696 165.420836,120.423412 162.375593,120.423412 C159.853198,120.423412 157.331525,121.421379 155.545311,123.260384 L155.545311,120.738712 L148.874124,120.738712 L148.874124,148.107571 L155.702237,148.107571 L155.702237,131.560859 C155.702237,127.830056 158.119051,126.569582 160.273356,126.569582 C162.426938,126.569582 164.79096,127.830056 164.79096,131.560859 L164.79096,148.107571 L171.62052,148.107571 L171.62052,131.403209 C171.62052,127.830056 174.088678,126.569582 176.188746,126.569582 C178.344497,126.569582 180.707797,127.830056 180.707797,131.560859 L180.707797,148.107571 L187.537356,148.107571 L187.537356,130.61496 C187.537356,127.619616 186.749831,125.045876 184.542011,122.840226 C183.019028,121.317243 180.550147,120.423412 177.818757,120.423412 Z M207.499571,137.28687 C207.499571,141.015503 205.082757,142.276701 202.929175,142.276701 C200.775593,142.276701 198.411571,141.015503 198.411571,137.28687 L198.411571,120.738712 L191.582734,120.738712 L191.582734,138.232768 C191.582734,141.22522 192.161266,143.799684 194.366915,146.00678 C195.889175,147.530486 198.097718,148.42287 200.828384,148.42287 C203.350056,148.42287 205.871006,147.477695 207.656497,145.586621 L207.656497,148.107571 L214.32913,148.107571 L214.32913,120.738712 L207.499571,120.738712 L207.499571,137.28687 Z M225.505627,139.861333 L225.505627,110.705537 L218.676068,110.705537 L218.676068,140.280045 C218.676068,144.167774 221.041537,148.107571 226.661243,148.107571 L230.548972,148.107571 L230.548972,142.329492 L227.922441,142.329492 C226.18974,142.329492 225.505627,141.489175 225.505627,139.861333 Z M255.620339,133.503277 C255.620339,125.991774 251.313175,120.423412 243.695367,120.423412 C236.603299,120.423412 231.771119,125.466757 231.771119,134.396384 C231.771119,145.48104 237.970079,148.42287 244.432271,148.42287 C249.369311,148.42287 252.048633,146.899164 254.83209,144.116429 L250.683299,140.071051 C248.949153,141.803751 247.478237,142.644068 244.484339,142.644068 C240.648678,142.644068 238.495819,140.071051 238.495819,136.551412 L255.620339,136.551412 L255.620339,133.503277 Z M238.495819,131.874712 C238.547887,130.667751 238.704814,129.932294 239.124972,128.933605 C239.860429,127.30504 241.384136,126.09591 243.695367,126.09591 C246.008045,126.09591 247.529582,127.30504 248.266486,128.933605 C248.686644,129.932294 248.843571,130.667751 248.896362,131.874712 L238.495819,131.874712 Z" fill="#E26029"></path>
     <path d="M140.685017,102.705175 C139.723209,103.167277 138.40922,103.063864 137.050395,103.104362 C135.880316,103.136181 134.243073,103.160768 133.562576,102.559096 C133.193763,102.232949 133.086011,101.523525 133.06287,101.111322 C133.03322,100.619571 133.158328,100.016452 133.261017,99.4661243 C133.384678,98.8145537 133.514847,97.9821921 133.261017,97.6227797 C132.968136,97.2084068 131.922441,97.3826893 131.367774,97.0738983 C130.778395,96.7470282 130.613514,95.9595028 130.424768,95.0815819 C130.362576,94.803887 130.199864,94.5529492 130.170938,94.3338305 C130.00678,92.9880226 130.45948,91.1822825 130.768271,89.7988701 C131.098034,88.3373559 131.525424,86.9676836 131.766237,85.6110282 C132.132881,83.5637514 132.255096,81.2503503 132.115525,79.1343729 C132.043932,78.031548 131.895684,77.1651977 132.06635,76.2431638 C132.226169,75.3818757 132.585582,74.6644972 132.762757,73.8039322 C132.817718,73.5291299 132.776497,73.2044294 132.813379,72.9050395 C132.849537,72.6418079 133.000678,72.4248588 133.014418,72.2093559 C133.043345,71.6322712 132.859661,70.9336949 132.813379,70.2148701 C132.691887,68.2934237 132.839412,65.5837288 132.965243,63.9349153 C133.006463,63.3636158 133.274757,62.7084294 132.864,62.4423051 C130.867345,62.4126554 129.044249,62.8017175 127.182102,63.0389153 C122.172023,63.6796384 115.868927,63.7628023 111.035299,62.7901469 C110.57826,62.6975819 110.120497,62.6874576 109.691661,62.5898305 C106.263141,61.8023051 103.11087,60.3284972 100.671638,58.4041582 C100.295593,58.107661 99.8494011,57.7851299 99.4270734,57.4589831 C99.0127006,57.1378983 98.5701243,56.6924294 98.180339,56.5123616 C96.2277966,55.6062373 93.6410395,56.6497627 92.8491751,57.9066215 C92.5324294,58.4092203 92.3068023,59.0557288 92.0016271,59.6501695 C91.7109153,60.2200226 91.4556384,60.8231412 91.2054237,61.3973333 C89.9174689,64.3427797 88.4639096,67.1544407 87.1687232,70.1165198 C86.4209718,71.8253559 85.5857175,73.7287232 85.0252655,75.6472768 C83.8378305,79.7194124 84.9449944,85.172791 85.8742599,89.0026667 C85.9574237,89.352678 86.1447232,89.7034124 86.2727232,90.0975367 C86.5656045,91.0253559 87.1940339,92.2547345 87.9171977,92.8903955 C88.2939661,93.219435 88.9354124,93.4183051 89.3613559,93.7878418 C89.8972203,94.2448814 90.2935141,95.1553446 90.7064407,95.9291299 C90.8792768,96.2531073 91.1200904,96.6183051 91.3536723,97.0247232 C91.8497627,97.884565 92.0197062,98.6561808 91.0550056,99.1674576 C90.3296723,99.5521808 89.2297401,99.6512542 88.2144181,99.7141695 C87.7508701,99.8320452 87.8976723,100.455412 87.6170847,100.760588 C87.4587119,100.93487 86.7745989,101.208949 86.4209718,101.310192 C85.0838418,101.697808 82.8261243,101.672497 81.7854915,101.310192 C81.2640904,101.127232 80.6718192,100.728045 80.5409266,100.313672 C80.2827571,99.4993898 80.9234802,98.4688814 80.3406102,97.8209266 C80.0867797,97.5425085 79.532113,97.5916836 79.0439774,97.3747345 C78.3497401,97.0659435 77.6837062,96.4158192 77.3503277,95.5776723 C76.5541243,93.5708927 77.0480452,90.4186215 76.9525876,87.9548023 C76.9258305,87.2359774 76.8289266,86.4643616 76.804339,85.6616497 C76.755887,84.2015819 76.4123842,82.7682712 76.2561808,81.3262825 C76.1773559,80.6240904 75.9466667,80.0245876 75.8078192,79.3845876 C75.5792994,78.3533559 75.4064633,77.2396836 75.1099661,76.1939887 C74.7809266,75.0463277 74.7715254,73.9275932 75.1591412,72.9563842 C75.2668927,72.6837514 75.5525424,72.4320904 75.7072994,72.0567684 C75.9372655,71.4927006 76.0197062,70.832452 76.0045198,70.3139435 C75.8360226,70.020339 75.1374463,70.2510282 74.9581017,69.9668249 C74.5415593,66.8167232 74.0686102,63.6449266 73.8126102,60.3494689 C73.7294463,59.2480904 73.7251073,58.0982599 73.6115706,56.96 C73.3960678,54.7073446 73.5768588,52.4149153 73.3656949,50.2338531 C73.260113,49.1700791 73.0004972,48.1713898 72.8667119,47.1423277 C72.4863277,44.2518418 71.68,40.5420113 72.2686554,37.5256949 C72.6454237,35.5897853 73.3411073,34.0226893 74.4620113,32.5929944 C75.2408588,31.5950282 76.0826215,30.6390056 77.0010395,29.7502373 C77.8811299,28.9041356 78.8978983,28.063096 79.9435932,27.3095593 C80.6168588,26.8243164 81.3306215,26.2588023 82.0863277,25.9152994 C83.756113,25.1509153 85.9306667,24.4718644 88.2144181,24.368452 C90.5097401,24.2693785 93.1102373,24.2563616 95.391096,24.6692881 C97.567096,25.0626893 99.7300791,25.4445198 101.868475,25.864678 C103.962034,26.2747119 106.015096,26.844565 107.997288,27.3594576 C108.253288,27.4259887 108.47313,27.5836384 108.74504,27.6581243 C109.376362,27.8309605 110.091571,27.8678418 110.789424,28.0558644 C112.634215,28.5591864 115.065492,28.8050621 117.317424,28.8050621 C119.765333,28.8050621 121.973876,28.7385311 123.995119,28.2561808 C124.295232,28.1853107 124.523751,28.0283842 124.840497,27.908339 C125.160859,27.7854011 125.542689,27.8099887 125.83774,27.7072994 C126.03878,27.6385989 126.253559,27.4202034 126.485695,27.3095593 C127.651435,26.7556158 128.636384,26.1937175 129.674124,25.4669379 C130.495638,24.8898531 131.17035,24.3973785 132.263774,23.971435 C132.749017,23.7819661 133.238599,23.5223503 133.710825,23.3733785 C134.743503,23.0457853 135.862237,22.7369944 136.652655,22.2271638 C137.892881,21.4309605 138.808407,20.2883616 139.840362,19.3872994 C140.918599,18.4464633 142.001175,17.5454011 143.130757,16.6465085 C145.418124,14.8219661 147.744542,13.1543503 149.905356,11.4144181 C150.99878,10.5328814 152.207186,9.70702825 153.494418,8.97229379 C156.007412,7.53753672 158.552226,5.84822599 162.162983,5.58354802 C163.576045,5.48013559 165.068655,5.43746893 166.501243,5.63272316 C166.894644,5.68768362 167.435571,5.90752542 167.794983,5.83159322 C168.192,5.74842938 168.480542,5.14892655 168.740881,4.68682486 C169.279638,3.73224859 169.661469,3.0980339 170.138034,1.94458757 C170.430192,1.23227119 170.308701,0.523570621 171.034034,0.54960452 C171.775277,0.57780791 171.649446,2.47322034 171.681989,3.1920452 C171.722486,4.06128814 171.575684,5.22919774 171.73261,5.83159322 C171.838192,6.25030508 172.394305,6.86716384 172.977898,6.87945763 C173.377085,6.8859661 173.646102,6.55548023 174.023593,6.32985311 C174.413379,6.1020565 174.77496,5.96754802 175.020113,5.78314124 C175.611661,5.33984181 176.318192,4.60293785 176.913356,3.98824859 C177.406554,3.48058757 178.178893,2.29242938 179.009808,2.39511864 C180.42504,2.56433898 179.019209,4.65211299 178.706802,5.33261017 C177.967006,6.96551412 177.253243,8.18332203 176.417989,9.71932203 C176.07087,10.3535367 175.272497,11.2075932 175.268158,11.8635028 C175.268158,12.3248814 175.665898,12.6315028 175.867661,13.108791 C175.964565,13.3358644 176.020249,13.5802938 176.119322,13.8044746 C176.604565,14.9333333 176.974825,16.5177853 177.36461,17.8411751 C177.69148,18.9555706 177.959051,20.1321582 178.36113,21.2306441 C178.753808,22.3038192 179.321492,23.3133559 179.756836,24.368452 C179.870373,24.6447006 179.892791,24.9838644 180.006328,25.2666215 C180.918237,27.5944859 181.797605,30.2492203 182.891028,32.4939209 C183.33939,33.4029379 183.946847,34.5368588 183.942508,35.8826667 C183.933831,37.3651525 183.162938,38.0738531 182.494011,39.1701695 C182.145446,39.7494237 181.629107,40.6331299 181.101198,40.8153672 C180.709243,40.9491525 180.254373,40.8081356 179.856633,40.863096 C179.296181,40.9411977 178.907842,41.3035028 178.409582,41.3620791 C177.05365,41.5190056 175.840904,40.4639096 175.467751,39.4688362 C175.344814,39.132565 175.400497,38.6748023 175.321672,38.2727232 C174.998418,36.6557288 174.214508,35.8739887 173.080588,34.8340791 C172.355977,34.1738305 171.801311,33.6654463 170.885785,33.1888814 C169.614463,32.5286328 168.196339,32.1207684 166.849808,31.3947119 C166.352994,31.1293107 165.728904,30.8639096 165.30296,30.9477966 C164.581966,31.0895367 163.863864,32.2581695 163.31209,32.9921808 C159.793175,37.6269379 156.68574,42.3904181 153.242757,46.9456271 C150.969853,49.955435 148.539299,53.0144181 146.71548,56.4617401 C146.257718,57.3280904 145.984362,58.3397966 145.619164,59.352226 C145.264814,60.340791 145.094147,61.4378305 144.722441,62.4914802 C143.398328,66.2823051 142.986124,70.8931977 141.785672,74.8496271 C141.657672,75.2654463 141.609944,75.7427345 141.484113,76.1939887 C140.931616,78.2145085 140.378395,80.5293559 139.741288,82.6728136 C139.265446,84.2710056 139.121537,86.4282034 139.040542,88.5543051 C138.967503,90.5227571 138.873492,93.3293559 139.59087,94.5804294 C139.969085,95.2464633 141.320678,95.488 141.834847,96.1778983 C142.187028,96.6551864 142.425672,97.5916836 142.780023,98.2208362 C143.025175,98.6561808 143.73026,99.5854463 143.676746,100.262328 C143.636249,100.769989 143.205966,101.127232 142.828475,101.310192 C142.409763,101.516294 141.790011,101.38974 141.385763,101.609582 C140.935955,101.854734 141.150011,102.403616 140.685017,102.705175" fill="#4C2418"></path>
  </g>
</svg>

<svg preserveAspectRatio="xMidYMid" viewBox="0 0 256 149" xmlns="http://www.w3.org/2000/svg">
  <path fill="#4C2418" d="M12.044 148.423c-4.308 0-8.197-.474-11.664-3.94l4.467-4.465c2.258 2.259 5.2 2.574 7.3 2.574 2.365 0 4.834-.788 4.834-2.836 0-1.366-.735-2.311-2.889-2.523l-4.308-.42c-4.937-.473-7.984-2.626-7.984-7.669 0-5.674 4.991-8.72 10.558-8.72 4.255 0 7.828.735 10.454 3.203l-4.202 4.256c-1.576-1.418-3.993-1.84-6.357-1.84-2.731 0-3.886 1.262-3.886 2.627 0 1 .419 2.155 2.836 2.365l4.307.421c5.411.524 8.144 3.414 8.144 8.036 0 6.042-5.148 8.93-11.61 8.93Zm23.53-.315c-5.567 0-7.931-3.94-7.931-7.828v-13.553h-2.89v-5.2h2.89v-8.09h6.829v8.09h4.833v5.2h-4.833v13.134c0 1.575.735 2.468 2.364 2.468h2.469v5.779h-3.73Zm6.87 0h6.83v-27.37h-6.83v27.37Zm-.105-32.045h6.988v-5.567h-6.988v5.567Zm22.368 32.36c-5.464 0-12.24-2.942-12.24-14.027 0-11.083 6.776-13.973 12.24-13.973 3.781 0 6.618 1.156 9.035 3.678l-4.623 4.623c-1.418-1.523-2.626-2.154-4.412-2.154-1.63 0-2.89.577-3.888 1.785-1.05 1.314-1.523 3.153-1.523 6.041 0 2.89.473 4.781 1.523 6.095.998 1.209 2.258 1.786 3.888 1.786 1.786 0 2.994-.63 4.412-2.154l4.623 4.57c-2.417 2.521-5.254 3.73-9.035 3.73Zm27.875-.315-6.724-11.4-2.888 3.257v8.143h-6.83v-37.402h6.83v21.222l9.088-11.19h8.248l-9.772 11.033 10.507 16.337h-8.459Zm14.16-11.557c0 3.52 2.153 6.093 5.99 6.093 2.993 0 4.464-.84 6.198-2.573l4.15 4.045c-2.783 2.783-5.462 4.307-10.4 4.307-6.463 0-12.66-2.942-12.66-14.027 0-8.93 4.832-13.973 11.924-13.973 7.616 0 11.924 5.569 11.924 13.08v3.048h-17.125Zm9.771-7.617c-.734-1.629-2.257-2.838-4.57-2.838-2.312 0-3.834 1.209-4.57 2.838-.42.998-.578 1.734-.63 2.94h10.402c-.053-1.206-.21-1.942-.632-2.94Zm25.466-.736c-1.05-1.051-1.943-1.628-3.625-1.628-2.102 0-4.415 1.577-4.415 5.044v16.494h-6.828v-27.37h6.671v2.628c1.314-1.577 3.942-2.943 6.883-2.943 2.68 0 4.57.683 6.461 2.576l-5.147 5.2Z"/>
  <path fill="#E26029" d="M177.819 120.423c-3.416 0-5.884 1.051-8.195 3.468-1.734-2.364-4.203-3.468-7.248-3.468-2.523 0-5.044.998-6.83 2.837v-2.521h-6.672v27.369h6.828V131.56c0-3.73 2.417-4.991 4.571-4.991s4.518 1.26 4.518 4.99v16.548h6.83v-16.705c0-3.573 2.468-4.833 4.568-4.833 2.155 0 4.519 1.26 4.519 4.99v16.548h6.83v-17.493c0-2.995-.788-5.57-2.996-7.775-1.523-1.523-3.992-2.417-6.723-2.417Zm29.68 16.864c0 3.729-2.416 4.99-4.57 4.99-2.153 0-4.517-1.261-4.517-4.99v-16.548h-6.83v17.494c0 2.992.58 5.567 2.785 7.774 1.522 1.523 3.73 2.416 6.461 2.416 2.522 0 5.043-.945 6.828-2.836v2.52h6.673V120.74h-6.83v16.548Zm18.007 2.574v-29.155h-6.83v29.574c0 3.888 2.366 7.828 7.985 7.828h3.888v-5.779h-2.627c-1.732 0-2.416-.84-2.416-2.468Zm30.114-6.358c0-7.511-4.307-13.08-11.925-13.08-7.092 0-11.924 5.044-11.924 13.973 0 11.085 6.2 14.027 12.661 14.027 4.937 0 7.617-1.524 10.4-4.307l-4.149-4.045c-1.734 1.733-3.205 2.573-6.199 2.573-3.835 0-5.988-2.573-5.988-6.093h17.124v-3.048Zm-17.124-1.628c.052-1.207.209-1.943.629-2.941.735-1.629 2.26-2.838 4.57-2.838 2.313 0 3.835 1.209 4.571 2.838.42.998.578 1.734.63 2.94h-10.4Z"/>
  <path fill="#4C2418" d="M140.685 102.705c-.962.462-2.276.359-3.635.4-1.17.031-2.807.056-3.487-.546-.37-.326-.477-1.035-.5-1.448-.03-.491.095-1.095.198-1.645.124-.651.254-1.484 0-1.843-.293-.415-1.339-.24-1.893-.55-.59-.326-.754-1.113-.943-1.991-.062-.278-.225-.53-.254-.748-.164-1.346.288-3.152.597-4.535.33-1.462.757-2.831.998-4.188.367-2.047.49-4.36.35-6.477-.072-1.102-.22-1.969-.05-2.89.16-.862.52-1.58.697-2.44.055-.275.013-.6.05-.899.037-.263.188-.48.201-.696.03-.577-.154-1.275-.2-1.994-.122-1.922.025-4.631.151-6.28.041-.571.31-1.227-.101-1.493-1.997-.03-3.82.36-5.682.597-5.01.64-11.313.724-16.147-.249-.457-.092-.915-.103-1.343-.2-3.429-.788-6.581-2.262-9.02-4.186-.376-.296-.823-.619-1.245-.945-.414-.321-.857-.767-1.247-.947-1.952-.906-4.539.138-5.33 1.395-.318.502-.543 1.149-.848 1.743-.291.57-.546 1.173-.797 1.747-1.288 2.946-2.741 5.757-4.036 8.72-.748 1.708-1.583 3.612-2.144 5.53-1.187 4.072-.08 9.526.85 13.356.082.35.27.7.398 1.095.293.927.921 2.157 1.644 2.792.377.33 1.018.528 1.444.898.536.457.933 1.367 1.345 2.141.173.324.414.69.648 1.096.496.86.666 1.631-.299 2.142-.725.385-1.825.484-2.84.547-.464.118-.317.741-.598 1.047-.158.174-.842.448-1.196.55-1.337.387-3.595.361-4.636 0-.52-.184-1.113-.583-1.244-.997-.258-.815.382-1.845-.2-2.493-.254-.278-.809-.23-1.297-.446-.694-.31-1.36-.96-1.694-1.797-.796-2.007-.302-5.16-.397-7.623-.027-.719-.124-1.49-.149-2.293-.048-1.46-.392-2.894-.548-4.336-.079-.702-.31-1.301-.448-1.941-.229-1.032-.402-2.145-.698-3.191-.33-1.148-.338-2.266.05-3.238.107-.272.393-.524.547-.9.23-.563.313-1.224.298-1.742-.169-.294-.868-.063-1.047-.347-.416-3.15-.89-6.322-1.145-9.618-.084-1.1-.088-2.25-.201-3.389-.216-2.253-.035-4.545-.246-6.726-.106-1.064-.366-2.063-.5-3.092-.38-2.89-1.186-6.6-.597-9.616.376-1.936 1.072-3.503 2.193-4.933a27.418 27.418 0 0 1 2.539-2.843 27.557 27.557 0 0 1 2.943-2.44c.673-.486 1.387-1.051 2.142-1.395 1.67-.764 3.845-1.443 6.128-1.547 2.296-.099 4.896-.112 7.177.301 2.176.394 4.34.776 6.477 1.196 2.094.41 4.147.98 6.13 1.494.255.067.475.225.747.3.631.172 1.347.209 2.044.397 1.845.503 4.276.75 6.528.75 2.448 0 4.657-.067 6.678-.55.3-.07.529-.228.845-.348.32-.123.703-.098.998-.2.2-.07.416-.288.648-.398a21.194 21.194 0 0 0 3.188-1.843c.822-.577 1.496-1.07 2.59-1.496.485-.189.975-.449 1.447-.598 1.033-.327 2.151-.636 2.942-1.146 1.24-.796 2.155-1.939 3.187-2.84a93.927 93.927 0 0 1 3.29-2.74c2.288-1.825 4.615-3.493 6.775-5.233a27.303 27.303 0 0 1 3.59-2.442c2.512-1.434 5.057-3.124 8.668-3.388 1.413-.104 2.906-.147 4.338.049.394.055.935.275 1.294.199.397-.084.686-.683.946-1.145.539-.955.92-1.589 1.397-2.742.292-.713.17-1.421.896-1.395.741.028.615 1.923.648 2.642.04.87-.106 2.037.05 2.64.106.418.662 1.035 1.246 1.047.4.007.668-.324 1.046-.55.39-.227.751-.361.996-.546.592-.443 1.298-1.18 1.893-1.795.494-.507 1.266-1.696 2.097-1.593 1.415.17.01 2.257-.303 2.938-.74 1.633-1.454 2.85-2.289 4.386-.347.635-1.146 1.489-1.15 2.145 0 .46.398.768.6 1.245.097.227.152.471.251.695.486 1.13.856 2.714 1.246 4.037.326 1.115.594 2.291.996 3.39.393 1.073.96 2.082 1.396 3.137.113.277.136.616.25.899.911 2.327 1.79 4.982 2.884 7.227.448.909 1.056 2.043 1.052 3.389-.01 1.482-.78 2.19-1.449 3.287-.349.58-.865 1.463-1.393 1.645-.392.134-.847-.007-1.244.048-.56.078-.95.44-1.447.5-1.356.156-2.57-.9-2.942-1.894-.123-.336-.068-.794-.146-1.196-.324-1.617-1.107-2.399-2.241-3.439-.725-.66-1.28-1.169-2.195-1.645-1.272-.66-2.69-1.068-4.036-1.794-.497-.266-1.121-.531-1.547-.447-.721.142-1.44 1.31-1.99 2.044-3.52 4.635-6.627 9.398-10.07 13.954-2.273 3.01-4.704 6.068-6.528 9.516-.457.866-.73 1.878-1.096 2.89-.354.989-.525 2.086-.897 3.14-1.324 3.79-1.736 8.401-2.936 12.358-.128.415-.176.893-.302 1.344-.552 2.02-1.106 4.335-1.743 6.479-.476 1.598-.62 3.755-.7 5.881-.073 1.969-.168 4.775.55 6.026.378.666 1.73.908 2.244 1.598.352.477.59 1.414.945 2.043.245.435.95 1.364.897 2.041-.04.508-.471.865-.849 1.048-.418.206-1.038.08-1.442.3-.45.245-.236.794-.701 1.095"/>
</svg>
